X:41
T:Emily Addison
R:strathspey
C:Paul S. Cranford
O:Cape Breton Island
S:http://www.cranfordpub.com
D:currently unrecorded
B:Brenda Stubbert, The 2nd Collection
Z:psc
H:                                                        copyrights Cranford Publications, SOCAN
L:1/8
Q:300
M:C
K:D
f|a>fd>A B<dA>F|D>df>d c<e e/f/g|a>fd>A B<dA>F|G>B (3(ABc) d<D Df/g/|
a>fd>A B<dA>F|D>df>d c<ee>=c|(3BGB d>B A<DF>A|G>B (3ABc d<DD||
||B|A>DF>A BB|A>DF>D C<EE>B|A>DF>A B<Gd>B|c<e A/B/c  dB|
A>DF>A BB|A>DF>D C<EA,>C|B,<DG,>B, C<EA,>C|D>F A/B/c d<DD|]
